icons/_assets/crescent_moon_outline.svg

<svg width="100" height="100" xmlns="http://www.w3.org/2000/svg"><path d="M44.9592912,10.0111021 C34.6889757,12.6992523 25.2409762,19.1351251 18.6358787,28.1953344 C11.3373257,38.2061013 8.27124267,50.4330632 10.2240772,61.7387154 C11.9032492,71.4636503 17.1519902,79.7687314 25.005839,85.1264194 C42.6995827,97.1991649 68.6218005,91.213976 82.7884859,71.7813891 C84.5035263,69.4295901 85.9834295,66.9701055 87.2215531,64.4175594 C74.5360994,73.6519268 58.0060857,74.7992431 45.7204981,66.4183833 C38.6344985,61.5844991 33.902528,54.1143133 32.3947272,45.3824784 C30.6770299,35.4275485 33.3459038,24.7041958 39.718521,15.9630548 C41.2967301,13.7987083 43.0476389,11.8111789 44.9592912,10.0111021 M45.7165127,96 C37.4627978,96 29.3631841,93.730627 22.3861181,88.971192 C13.4841153,82.8982593 7.53793337,73.5083461 5.64222257,62.5310683 C3.47683462,49.9903559 6.84447785,36.4764854 14.8789971,25.4526768 C24.1848514,12.6872872 38.6836515,4.66803811 53.6606968,4.00464201 C54.7433907,3.93551055 55.6932388,4.64543744 55.994799,5.67310315 C56.2963592,6.70076886 55.8579677,7.80155438 54.9320319,8.33998208 C50.4351986,10.9576713 46.580011,14.4448216 43.4740742,18.7043829 C37.8400801,26.4351412 35.471438,35.8702557 36.9765819,44.5901255 C38.2678439,52.0696175 42.3037019,58.4549712 48.3388905,62.5736107 C61.1744601,71.3293757 79.4819518,67.9578877 90.9173257,54.7271903 C91.6227373,53.9122367 92.7957665,53.6888889 93.7522569,54.1874331 C94.7074188,54.6873067 95.1936348,55.7787861 94.927943,56.8237347 C93.3178509,63.1466041 90.4975327,69.1012157 86.5440391,74.5240467 C76.437124,88.3888924 60.8250754,95.9986705 45.7165127,96" fill="#134B45" fill-rule="evenodd"/></svg>

<svg width="100" height="100" xmlns="http://www.w3.org/2000/svg"><path d="M44.96 10.011C34.688 12.7 25.24 19.135 18.635 28.195 11.337 38.206 8.27 50.433 10.224 61.74c1.68 9.725 6.928 18.03 14.782 23.387C42.7 97.2 68.622 91.214 82.788 71.781a48.18 48.18 0 0 0 4.434-7.363c-12.686 9.234-29.216 10.381-41.502 2-7.086-4.834-11.817-12.304-13.325-21.036-1.718-9.954.95-20.678 7.324-29.419a42.789 42.789 0 0 1 5.24-5.952M45.717 96c-8.254 0-16.354-2.27-23.33-7.029-8.903-6.073-14.85-15.463-16.745-26.44-2.165-12.54 1.202-26.055 9.237-37.078C24.185 12.687 38.684 4.668 53.661 4.005c1.082-.07 2.032.64 2.334 1.668a2.327 2.327 0 0 1-1.063 2.667c-4.497 2.618-8.352 6.105-11.458 10.364-5.634 7.731-8.003 17.166-6.497 25.886 1.29 7.48 5.327 13.865 11.362 17.984 12.835 8.755 31.143 5.384 42.578-7.847a2.327 2.327 0 0 1 2.835-.54 2.328 2.328 0 0 1 1.176 2.637c-1.61 6.323-4.43 12.277-8.384 17.7C76.437 88.389 60.825 95.999 45.717 96" fill="#134B45" fill-rule="evenodd"/></svg>
